!!!COM: Haydn, Franz Joseph
!!!OTL: String Quartet in E-flat Major
!!!OPS: Opus 76
!!!ONM: No. 6
!!!OMD: Menuetto: Presto
!!!OMV: 3
!!!SCT: H III:80
!!!SCA: Thematisch-bibliographisches Werkevererzeichnis (A. van Hoboken)
!!!YOR: Trautwein Edition
!!!ENC: Frances Bennion
!!!CDT: 1732/3/31/-1809/5/31/
!!!CNT: Oesterreich
!!!YEC: Copyright (c) 1994, 2000 Center for Computer Assisted Research in the Humanities
!!!YEM: Rights to all derivative editions reserved.
!!!YEM: Refer to licensing agreement for further details.
!!!YEN: United States of America
**kern	**kern	**kern	**kern
*k[b-e-a-]	*k[b-e-a-]	*k[b-e-a-]	*k[b-e-a-]
*E-:	*E-:	*E-:	*E-:
*clefF4	*clefC3	*clefF	*clefF
*M3/4	*M3/4	*M3/4	*M3/4
2r	2r	2r	2r
4r	4r	4r	4ee-
=1	=1	=1	=1
2.r	2.r	2.r	8dd
.	.	.	8ee-
.	.	.	8ff
.	.	.	8ee-
.	.	.	4gg
=2	=2	=2	=2
4r	4r	4r	4ee-
4e-	4g	4b-	4r
4r	4r	4r	4bb-
=3	=3	=3	=3
4r	4r	4r	4ee-
4E-	4B-	4g	4r
4r	4r	4r	4eee-
=4	=4	=4	=4
4r	4r	4r	4ee-
4EE-	4G	4B-	4r
4r	4r	4r	4ggg
=5	=5	=5	=5
2.r	4r	4r	2ee-
.	4g	4b-	.
.	4f	4a-	4dd
=6	=6	=6	=6
2.r	4r	4r	2cc
.	4e-	4g	.
.	4d	4f	4b-
=7	=7	=7	=7
4F	4c	4e-	8a
.	.	.	8b-
4F	4c	4e-	8a
.	.	.	8b-
4F	4c	4e-	8cc
.	.	.	8a
=8	=8	=8	=8
4B-	4d	4d	4b-
4BB-	2r	2r	4r
4r	.	.	4ff
=9	=9	=9	=9
2.r	2.r	2.r	8ee
.	.	.	8ff
.	.	.	8gg
.	.	.	8ff
.	.	.	4aa-
=10	=10	=10	=10
4r	4r	4r	4ff
4f	4a-	4cc	4r
4r	4r	4r	4ccc
=11	=11	=11	=11
4r	4r	4r	4ff
4F	4c	4a-	4r
4r	4r	4r	4fff
=12	=12	=12	=12
4r	4r	4r	4ff
4FF	4A-	4c	4r
4r	4r	4r	4aaa-
=13	=13	=13	=13
4BB-	4F	4A- 4d	8d
.	.	.	8e-
4BB-	4F	4A- 4d	8f
.	.	.	8g
4BB-	4F	4A- 4d	8a-
.	.	.	8b-
=14	=14	=14	=14
4E-	4G	4e- 4G	8g
.	.	.	8a-
4E-	4G	4G 4e-	8b-
.	.	.	8cc
4E-	4G	4G 4e-	8dd
.	.	.	8ee-
=15	=15	=15	=15
4BB-	4d	4A- 4f	8dd
.	.	.	8ee-
4BB-	4d	4f 4A-	8ff
.	.	.	8gg
4BB-	4d	4A- 4f	8aa-
.	.	.	8bb-
=16	=16	=16	=16
4EE-	4e-	4G 4e-	4gg
2r	4r	4r	4r
.	4c	4ee-	4gg
=17	=17	=17	=17
2.r	8B	4ff	4aa-
.	8c	.	.
.	8d	4r	4r
.	8e-	.	.
.	8f	4b	4dd
.	8g	.	.
=18	=18	=18	=18
2.r	4e-	4cc	4ee-
.	4c	4r	4r
.	4B-	4dd	4gg
=19	=19	=19	=19
2.r	8A	4cc	4ff
.	8B-	.	.
.	8c	4r	4r
.	8d	.	.
.	8e-	4a	4cc
.	8f	.	.
=20	=20	=20	=20
4r	4d	4b-	4dd
4r	4B-	4r	4r
4BB-	4r	4ff	4dd
=21	=21	=21	=21
8AA	2.r	4ff	4ee-
8BB-	.	.	.
8AA	.	4ff	4ee-
8BB-	.	.	.
8C	.	4ff	4ee-
8AA	.	.	.
=22	=22	=22	=22
4BB-	4r	4ff	4dd
4B-	4r	4r	4r
4r	4B-	4dd	4ff
=23	=23	=23	=23
2.r	8A	4ee-	4ff
.	8B-	.	.
.	8A	4ee-	4ff
.	8B-	.	.
.	8c	4ee-	4ff
.	8A	.	.
=24	=24	=24	=24
2.r	4B-	4dd	4ff
.	4d	4r	4r
.	4dd	4ff	4bb-
=25	=25	=25	=25
2.r	2cc	2ee-	8aa
.	.	.	8bb-
.	.	.	8ccc
.	.	.	8bb-
.	4b-	4dd	8aa
.	.	.	8gg
=26	=26	=26	=26
2.r	2a	2cc	8ff#
.	.	.	8gg
.	.	.	8aa
.	.	.	8gg
.	4g	4b-	8ff
.	.	.	8ee-
=27	=27	=27	=27
2.r	[2.f	[2.a-	8dd
.	.	.	8ee-
.	.	.	8ff
.	.	.	8ee-
.	.	.	8dd
.	.	.	8cc
=28	=28	=28	=28
2.r	4f]	4a-]	8b
.	.	.	8cc
.	4e-	4g	8dd
.	.	.	8ee-
.	4c	4e-	8ff
.	.	.	8gg
=29	=29	=29	=29
4r	2.F	2d	2b-
4r	.	.	.
4F	.	4c	4a
=30	=30	=30	=30
4BB-	4B-	4B-	4b-
4r	4f	4b-	4dd
4B-	4r	4r	4r
=31	=31	=31	=31
4BB-	4r	4r	4r
4r	4b-	4dd	4ff
4B-	4r	4r	4r
=32	=32	=32	=32
4BB-	4r	4r	4r
4r	4d	4ff	4aa-
4d	4r	4r	4r
=33	=33	=33	=33
4BB-	4r	4r	4r
4r	4f	4aa-	4ddd
4f	4r	4r	4r
=34	=34	=34	=34
4BB-	4r	4r	4r
4r	4d	4aa-	4fff
4a-	4r	4r	4r
=35	=35	=35	=35
4BB-	4r	2.r	2.r
2r	4d	.	.
.	4B-	.	.
=36	=36	=36	=36
2.r	2.r	4f	4r
.	.	4d	4r
.	.	4r	4a-
=37	=37	=37	=37
2.r	4r	2.r	4f
.	4g	.	2r
.	4e-	.	.
=38	=38	=38	=38
2.r	2.r	4b-	4r
.	.	4g	4r
.	.	4r	4ee-
=39	=39	=39	=39
2.r	2.r	2.r	8dd
.	.	.	8ee-
.	.	.	8ff
.	.	.	8ee-
.	.	.	4gg
=40	=40	=40	=40
4r	4r	4r	4ee-
4e-	4g	4b-	4r
4r	4r	4r	4bb-
=41	=41	=41	=41
4r	4r	4r	4ee-
4E-	4B-	4g	4r
4r	4r	4r	4eee-
=42	=42	=42	=42
4r	4r	4r	4ee-
4EE-	4G	4B-	4r
4r	4r	4r	4ggg
=43	=43	=43	=43
2.r	4r	4r	2ee-
.	4g	4b-	.
.	4f	4a-	4dd
=44	=44	=44	=44
2.r	4r	4r	2cc
.	4e-	4g	.
.	4d	4f	4b-
=45	=45	=45	=45
4F	4c	4e-	8a
.	.	.	8b-
4F	4c	4e-	8a
.	.	.	8b-
4F	4c	4e-	8cc
.	.	.	8a
=46	=46	=46	=46
4BB-	4d	4d	4b-
4B-	2r	2r	4r
4r	.	.	4dd-
=47	=47	=47	=47
2.r	2.r	2.r	8cc
.	.	.	8dd-
.	.	.	8ee-
.	.	.	8dd-
.	.	.	4ff
=48	=48	=48	=48
4r	4r	4r	4g
4E-	4B- 4g	4d-	4r
4r	4r	4r	4dd-
=49	=49	=49	=49
4r	4r	4r	4bb-
4E-	4g 4B-	4d-	4r
4r	4r	4r	4dd-
=50	=50	=50	=50
4r	4r	4r	4fff
4E-	4g 4B-	4d-	4r
4r	4r	4r	8ddd-
.	.	.	8ccc
=51	=51	=51	=51
4GG	4e-	4dd-	8bb-
.	.	.	8aa-
4GG	4e-	4dd-	8gg
.	.	.	8ff
4GG	4e-	4b-	8ee-
.	.	.	8dd-
=52	=52	=52	=52
4AA-	4e-	4cc	8cc
.	.	.	8b-
2r	2r	2r	8a-
.	.	.	8g
.	.	.	8f
.	.	.	8e-
=53	=53	=53	=53
4BB-	4F	4A- 4d	8d
.	.	.	8e-
4BB-	4F	4A- 4d	8f
.	.	.	8g
4BB-	4F	4A- 4d	8a-
.	.	.	8b-
=54	=54	=54	=54
4E-	4G	4G 4e-	8g
.	.	.	8a-
4E-	4G	4e- 4G	8b-
.	.	.	8cc
4E-	4G	4G 4e-	8dd
.	.	.	8ee-
=55	=55	=55	=55
4BB-	4d	4A- 4f	8dd
.	.	.	8ee-
4BB-	4d	4A- 4f	8ff
.	.	.	8gg
4BB-	4d	4A- 4f	8aa-
.	.	.	8bb-
=56	=56	=56	=56
4EE-	8ee-	8gg	4gg
.	8dd	8ff	.
2r	8cc	8ee-	2r
.	8b-	8dd	.
.	8a-	8cc	.
.	8g	8b-	.
=57	=57	=57	=57
8BB-	2f	2a-	8dd
8C	.	.	8ee-
8D	.	.	8ff
8E-	.	.	8gg
8F	4r	4r	8aa-
8D	.	.	8bb-
=58	=58	=58	=58
4E-	8ee-	8gg	4gg
.	8dd	8ff	.
2r	8cc	8ee-	4.r
.	8b-	8dd	.
.	8a-	8cc	.
.	8g	8b-	8ee-
=59	=59	=59	=59
4BB-	8f	8a-	8ff
.	8e-	8g	8gg
4BB-	8d	8f	8aa-
.	8c	8e-	8bb-
4BB-	8B-	8d	8ccc
.	8A-	8f	8ddd
=60	=60	=60	=60
4EE-	4G	4e-	4eee-
4r	2r	2r	2r
4E-	.	.	.
=61	=61	=61	=61
2D	2.r	2.r	2.r
4C	.	.	.
=62	=62	=62	=62
2BB-	2.r	2.r	2.r
4AA-	.	.	.
=63	=63	=63	=63
2GG	2.r	2.r	2.r
4FF	.	.	.
=64	=64	=64	=64
2EE-	4r	2.r	2.r
.	4r	.	.
[4c	4e-	.	.
=65	=65	=65	=65
4c]	2d	2.r	2.r
4B-	.	.	.
[4A-	4c	.	.
=66	=66	=66	=66
4A-]	2B-	2.r	2.r
4G	.	.	.
[4F	4A-	.	.
=67	=67	=67	=67
4F]	2G	2.r	2.r
4E-	.	.	.
4BB-	4F	.	.
=68	=68	=68	=68
4GG	2E-	4r	2.r
4EE-	.	4r	.
8CC	[4cc	4ee-	.
8EE-	.	.	.
=69	=69	=69	=69
2GG	4cc]	2dd	2.r
.	4b-	.	.
8AA-	[4a-	4cc	.
8C	.	.	.
=70	=70	=70	=70
2E-	4a-]	2b-	2.r
.	4g	.	.
4B	[4f	4a-	.
=71	=71	=71	=71
4c	4f]	2g	2.r
4A	4e-	.	.
4B-	4d	4f	.
=72	=72	=72	=72
4G	2e-	2e-	4r
4E-	.	.	4r
4r	4a	[4gg-	4ee-
=73	=73	=73	=73
2.r	2b-	4gg-]	2dd
.	.	4ff	.
.	4f#	[4ee-	4cc
=74	=74	=74	=74
2.r	2g	4ee-]	2b-
.	.	4dd	.
.	4d	[4cc	4a-
=75	=75	=75	=75
2.r	2e-	4cc]	2g
.	.	4b-	.
.	4B-	[4dd	4f
=76	=76	=76	=76
4r	2E-	4dd]	2e-
4r	.	4ee-	.
4EE-	4r	4r	4r
=77	=77	=77	=77
2FF	2.r	2.r	2.r
4GG	.	.	.
=78	=78	=78	=78
2AA-	2.r	2.r	2.r
4BB-	.	.	.
=79	=79	=79	=79
2C	2.r	2.r	2.r
4D	.	.	.
=80	=80	=80	=80
2E-	4r	2.r	2.r
.	4r	.	.
[4E-	4E-	.	.
=81	=81	=81	=81
4E-]	2F	2.r	2.r
4D	.	.	.
[4D-	4G	.	.
=82	=82	=82	=82
4D-]	2A-	2.r	2.r
4C	.	.	.
[4BB-	4B-	.	.
=83	=83	=83	=83
4BB-]	2c	2.r	2.r
4AA-	.	.	.
4FF	4d	.	.
=84	=84	=84	=84
4GG	2e-	4r	2.r
4EE-	.	4r	.
4G	[4e-	4e-	.
=85	=85	=85	=85
4A-	4e-]	2f	2.r
4B-	4d	.	.
4E-	[4d-	4g	.
=86	=86	=86	=86
2AA-	4d-]	2a-	2.r
.	4c	.	.
4G	[4B-	4b-	.
=87	=87	=87	=87
4E	4B-]	2cc	2.r
4F	4A-	.	.
4BB-	[4A-	4dd	.
=88	=88	=88	=88
2EE-	4A-]	[2.ee-	4r
.	4G	.	4r
8EE-	8G	.	4e-
8GG	8B-	.	.
=89	=89	=89	=89
8AA-	2c	2.ee-_	2f
8GG	.	.	.
8AA-	.	.	.
8EE-	.	.	.
8BB-	4d-	.	4g
8EE-	.	.	.
=90	=90	=90	=90
8C	2e-	2.ee-_	2a-
8BB-	.	.	.
8C	.	.	.
8EE-	.	.	.
8GG	4d-	.	4b-
8EE-	.	.	.
=91	=91	=91	=91
8AA-	2c	2ee-]	2cc
8GG	.	.	.
8AA-	.	.	.
8EE-	.	.	.
8FF	4F	4aa-	4dd
8BB-	.	.	.
=92	=92	=92	=92
4EE-	4G	4gg	4ee-
2r	2r	2r	4r
.	.	.	4ee-
=93	=93	=93	=93
2.r	2.r	2.r	2dd
.	.	.	4cc
=94	=94	=94	=94
2.r	2.r	2.r	2b-
.	.	.	4a-
=95	=95	=95	=95
2.r	2.r	2.r	2g
.	.	.	4f
=96	=96	=96	=96
2.r	2.r	4r	2e-
.	.	4r	.
.	.	4ee-	8g
.	.	.	8a
=97	=97	=97	=97
2.r	2.r	2dd	8b-
.	.	.	8a
.	.	.	8b-
.	.	.	8f
.	.	4cc	8e-
.	.	.	8f
=98	=98	=98	=98
2.r	2.r	2b-	8g
.	.	.	8f#
.	.	.	8g
.	.	.	8d
.	.	4a-	8c
.	.	.	8d
=99	=99	=99	=99
2.r	2.r	2g	8e-
.	.	.	8d
.	.	.	8e-
.	.	.	8B-
.	.	4f	8A-
.	.	.	8B-
=100	=100	=100	=100
2.r	4r	4e-	4G
.	4r	4r	4r
.	4e-	4g	[4cc
=101	=101	=101	=101
2.r	2d	2f	4cc]
.	.	.	4b-
.	4c	4e-	[4a-
=102	=102	=102	=102
2.r	2B-	2d	4a-]
.	.	.	4g
.	4A-	4c	[4f
=103	=103	=103	=103
2.r	2G	2B-	4f]
.	.	.	4e-
.	4F	4A-	[4d
=104	=104	=104	=104
4r	2E-	2G	4d]
4r	.	.	4e-
4E-	4c	4a	[4gg-
=105	=105	=105	=105
2D	2d	2b-	4gg-]
.	.	.	4ff
4C	4a	4f#	[4ee-
=106	=106	=106	=106
2BB-	2b-	2g	4ee-]
.	.	.	4dd
4AA-	4F	4d	[4cc
=107	=107	=107	=107
2GG	2G	2e-	4cc]
.	.	.	4b-
4FF	4B-	[4a-	[4dd
=108	=108	=108	=108
2EE-	2B-	4a-]	4dd]
.	.	4g	4ee-
4r	4r	4r	4e-
=109	=109	=109	=109
2.r	2.r	2.r	2f
.	.	.	4g
=110	=110	=110	=110
2.r	2.r	2.r	2a-
.	.	.	4b-
=111	=111	=111	=111
2.r	2.r	2.r	2cc
.	.	.	4dd
=112	=112	=112	=112
2.r	2.r	4r	2ee-
.	.	4r	.
.	.	4e-	4gg
=113	=113	=113	=113
2.r	2.r	2f	8bb-
.	.	.	8aa-
.	.	.	8gg
.	.	.	8ff
.	.	4g	8ee-
.	.	.	8dd
=114	=114	=114	=114
2.r	2.r	2a-	4cc
.	.	.	4ccc
.	.	4b-	4bb-
=115	=115	=115	=115
2.r	2.r	2cc	2.aa-
.	.	4dd	.
=116	=116	=116	=116
2.r	4r	2ee-	2gg
.	4r	.	.
.	4E-	4g	[4ee-
=117	=117	=117	=117
2.r	2F	2a-	4ee-]
.	.	.	4dd
.	4G	4b-	[4dd-
=118	=118	=118	=118
2.r	2A-	2e-	4dd-]
.	.	.	4cc
.	4B-	[4g	[4b-
=119	=119	=119	=119
2.r	2c	4g]	4b-]
.	.	4f#	4a
.	4d	[4f	[4a-
=120	=120	=120	=120
4r	2e-	4f]	4a-]
4r	.	4e-	4g
4EE-	4G	4r	4bb-
=121	=121	=121	=121
2FF	2A-	2b-	2d
4GG	4B-	[4e-	4bb-
=122	=122	=122	=122
2AA-	2c	4e-]	4c
.	.	8cc	8ee-
.	.	8b-	8dd
4BB-	4d	8a-	8cc
.	.	8g	8b-
=123	=123	=123	=123
2C	2e-	2g	2b-
4D	4f	4f	4a-
=124	=124	=124	=124
4E-	4B-	4e-	4g
4r	2r	2r	2r
4E-	.	.	.
=125	=125	=125	=125
2D	2.r	2.r	2.r
4C	.	.	.
=126	=126	=126	=126
2BB-	2.r	2.r	2.r
4AA-	.	.	.
=127	=127	=127	=127
2GG	2.r	2.r	2.r
4FF	.	.	.
=128	=128	=128	=128
8EE-	4r	2.r	2.r
8DD	.	.	.
8EE-	4r	.	.
8FF	.	.	.
8GG	4e-	.	.
8AA-	.	.	.
=129	=129	=129	=129
8BB-	2d	2.r	2.r
8C	.	.	.
8D	.	.	.
8E-	.	.	.
8F	4c	.	.
8G	.	.	.
=130	=130	=130	=130
8A-	2B-	2.r	2.r
8G	.	.	.
8A-	.	.	.
8F	.	.	.
4D	4A-	.	.
=131	=131	=131	=131
8E-	2G	2.r	2.r
8D	.	.	.
8E-	.	.	.
8BB-	.	.	.
8D	4F	.	.
8BB-	.	.	.
=132	=132	=132	=132
4E-	2E-	4r	4r
4EE-	.	4r	4r
4r	8g	4ee-	8b-
.	8a-	.	8cc
=133	=133	=133	=133
2.r	8f	2dd	8a-
.	8g	.	8b-
.	8f	.	8a-
.	8g	.	8b-
.	8e-	4cc	8g
.	8f	.	8a-
=134	=134	=134	=134
2.r	8d	2b-	8f
.	8e-	.	8g
.	8d	.	8f
.	8e-	.	8g
.	8c	4a-	8e-
.	8d	.	8f
=135	=135	=135	=135
2.r	8B-	2g	8d
.	8c	.	8e-
.	8B-	.	8d
.	8c	.	8e-
.	8A-	4f	8c
.	8B-	.	8d
=136	=136	=136	=136
4r	4G	2e-	4B-
4r	4r	.	4r
4E-	4b-	4g	4ee-
=137	=137	=137	=137
2B	2a-	2f	2dd
4c	4g	4e-	4cc
=138	=138	=138	=138
2G	2e	2d-	2b-
4A-	4f	4c	4a-
=139	=139	=139	=139
2B-	2e-	2B-	2g
4BB-	4A-	4d	4f
=140	=140	=140	=140
4E-	4G	4e-	2e-
4r	2r	2r	.
4EE-	.	.	4r
=141	=141	=141	=141
2FF	2.r	2.r	2.r
4GG	.	.	.
=142	=142	=142	=142
2AA-	2.r	2.r	2.r
4BB-	.	.	.
=143	=143	=143	=143
2C	2.r	2.r	2.r
4D	.	.	.
=144	=144	=144	=144
2E-	4r	2.r	2.r
.	4r	.	.
8GG	4E-	.	.
8E-	.	.	.
=145	=145	=145	=145
8AA-	2F	2.r	2.r
8E-	.	.	.
8D	.	.	.
8E-	.	.	.
8BB-	4G	.	.
8E-	.	.	.
=146	=146	=146	=146
8C	2A-	2.r	2.r
8E-	.	.	.
8D	.	.	.
8E-	.	.	.
8GG	4B-	.	.
8E-	.	.	.
=147	=147	=147	=147
8AA-	2c	2.r	2.r
8E-	.	.	.
8D	.	.	.
8E-	.	.	.
8AA-	4d	.	.
8BB-	.	.	.
=148	=148	=148	=148
4GG	2e-	4r	2.r
4EE-	.	4r	.
4A-	4c	4e-	.
=149	=149	=149	=149
4F	2d-	2f	2.r
4D-	.	.	.
4C	4e	4g	.
=150	=150	=150	=150
4AA-	2f	2a-	2.r
4FF	.	.	.
4EE-	4g	4b-	.
=151	=151	=151	=151
4CC	2a-	2cc	2.r
4AA-	.	.	.
4BB-	8g	4dd	.
.	8f	.	.
=152	=152	=152	=152
[2.EE-	2e-	2ee-	4r
.	.	.	4r
.	4G	4ee-	4ee-
=153	=153	=153	=153
2.EE-_	2A-	2dd	2ff
.	4B-	4dd-	4gg
=154	=154	=154	=154
2.EE-_	2c	2cc	2aa-
.	4d-	4gg	4bb-
=155	=155	=155	=155
2.EE-_	2c	2aa-	2ccc
.	4c-	4ff	4ddd
=156	=156	=156	=156
4EE-]	4B-	4gg	4eee-
2r	2r	2r	2r
==	==	==	==
*-	*-	*-	*-
!!!RWG1: This file contains only pitch and duration data.
!!!RWG2: Transposing instruments are not transposed.
!!!RWG3: Spines may have incompatible meters.
!!!RWG4: Durations of rests and tied notes may be interpreted.
!!!RWG: Key is interpreted using the Humdrum key tool.
!!!GTL: 6 Quartetti ("Erdödy")
!!!AFT: stage1
!!!END: 1997/04/15
!!!KEY: 3645584823
!!!EMD: Converted from MuseData to Humdrum Dec 16, 2000, by Andreas Kornstaedt using muse2kern.
!!!EMD: Manual editing by Craig Sapp, Nov 2001
